packages/devextreme-scss/images/icons/generic/sparkle.svg

<svg width="18" height="18" viewBox="0 0 18 18" fill="none" xmlns="http://www.w3.org/2000/svg">
<path fill-rule="evenodd" clip-rule="evenodd" d="M6.85478 12.8814C6.30483 9.8216 4.18499 7.70177 1.12023 7.14681C0.955244 7.11681 0.955244 6.89183 1.12023 6.86183C4.17999 6.31188 6.29983 4.19204 6.85478 1.12728C6.88478 0.962293 7.10976 0.962293 7.13976 1.12728C7.68972 4.18704 9.80955 6.30688 12.8743 6.86183C13.0393 6.89183 13.0393 7.11681 12.8743 7.14681C9.81455 7.69677 7.69472 9.8166 7.13976 12.8814C7.10976 13.0464 6.88478 13.0464 6.85478 12.8814Z" fill="black"/>
<path fill-rule="evenodd" clip-rule="evenodd" d="M12.9043 16.921C12.5343 14.8811 11.1244 13.4662 9.08461 13.1013C8.97461 13.0813 8.97461 12.9313 9.08461 12.9113C11.1244 12.5413 12.5393 11.1314 12.9043 9.09159C12.9243 8.9816 13.0743 8.9816 13.0943 9.09159C13.4643 11.1314 14.8742 12.5463 16.914 12.9113C17.024 12.9313 17.024 13.0813 16.914 13.1013C14.8742 13.4712 13.4593 14.8811 13.0943 16.921C13.0743 17.031 12.9243 17.031 12.9043 16.921Z" fill="black"/>
</svg>

<!-- Generated by IcoMoon.io -->
<svg version="1.1" xmlns="http://www.w3.org/2000/svg" width="18" height="18" viewBox="0 0 18 18">
<path d="M6.855 12.881c-0.55-3.060-2.67-5.18-5.735-5.735-0.165-0.030-0.165-0.255 0-0.285 3.060-0.55 5.18-2.67 5.735-5.735 0.030-0.165 0.255-0.165 0.285 0 0.55 3.060 2.67 5.18 5.735 5.735 0.165 0.030 0.165 0.255 0 0.285-3.060 0.55-5.18 2.67-5.735 5.735-0.030 0.165-0.255 0.165-0.285 0z"></path>
<path d="M12.904 16.921c-0.37-2.040-1.78-3.455-3.82-3.82-0.11-0.020-0.11-0.17 0-0.19 2.040-0.37 3.455-1.78 3.82-3.82 0.020-0.11 0.17-0.11 0.19 0 0.37 2.040 1.78 3.455 3.82 3.82 0.11 0.020 0.11 0.17 0 0.19-2.040 0.37-3.455 1.78-3.82 3.82-0.020 0.11-0.17 0.11-0.19 0z"></path>
</svg>
